X: 3
T: Caribou
C: Andy DeJarlis
R: reel
M: C|
K: Edor
|:\
"Em"B2ED EFGA | B2ED EFGE |\
"D"D2FD  DADD | BDDA DDFD ||\
"Em"E2ED EFGA |
                Bdef g2fg |\
"C"afge "D"efec | "D"dBAF \
[1 "Em"EdcA  :|[2 "Em"E4  |:\
"Em"Be2B efed | Bdef edBd |
"D"Ad2A d3e   | fedf edBA ||\
"Em"Be2B efed | Bdef g2fg |\
"C"afge "D"efec | dBAF "Em"E4 :|

